X: 1
T: Marquis of Queensberry
R: Reel
B: Athole Collection, 1881.
L: 1/8
M: 4/4
K: C
|: f |\
"C"eccB ~c2ec | "F"fedc "G"Bagf | "C"eccB "Am"~c2dc | "G"BGAB [1 "C"ceg :|[2 "C"c3 ||
G |\
"C"EFGE "F"F2Ac | "G"BcdB  "C"c2eg | "F"a2{f}ag "Dm"fedc | "G"BGAB "C"cAGF |
"C"EFGE "F"FGAc | "G"BcdB "Am"cdeg | "F"a2{f}ag "Dm"fedc | "G"B[cG][dA]B "C"c3 |]
